X:1
T:Title
%%score { ( 1 3 ) | ( 2 4 ) }
L:1/8
M:6/8
K:C
V:1 treble nm="Grand Piano"
V:3 treble 
V:2 bass 
V:4 bass 
V:1
 z3 z2[Q:1/4=87] [EG] | [EG]>[FA][EG] [Ec][CE][CA] | [CG] [B,F]2- [B,F]2 [DF] | %3
 [DF]>[^CE][DF] [FA][EG][DF] |[M:5/8] [CE]-[CE]- [CE]3 |[M:1/8] [EG] |[M:3/4] A>A AA [GB][Fc] | %7
 [Ec][EG]- [EG]3 [EG] | [D^F]>[FA] [FA][FA] [FB][Fc] |[M:5/8] B-B- B3 |[M:1/8] A | %11
[M:3/4] [EG]>[FA] [EG][Ec] [CE][CA] | [CG][B,F]- [B,F]3 [DF] | [DF]>[^CE] [DF]d BA | %14
[M:5/8] [EG]-[EG]- [EG]3 |[M:1/8] [EG] |[M:3/4] [Ec]>[Ec] [Ec][Ge] [Gd][CGc] | %17
 [CGB][CFA]- [CFA]3 [DGB] |[M:13/16] [CGc][CE][A,DF][CE][K:bass][G,B,E]3/2[F,B,D] | %19
[M:5/8] [E,C]-[E,C]- [E,C]3 |[M:1/8][K:treble] G |[M:3/4] d>d dG AB | c2- [Fc-] [Ec]2 c | %23
 e>e e[^Fe] [Fd][Fc] |[M:5/8] d-d- d3 |[M:1/8] G |[M:3/4] ee d ^c2 A | [Ff][Ff] [Ge] [Ad]2 [Ac] | %28
[M:13/16] eG[^FA][=FB][Ge]3/2[Fd] |[M:5/8] [Ec]-[Ec]- [Ec]3 |] %30
V:2
 z3 z2 [C,C] | [C,C]>[C,C][C,C] [C,G,][C,G,][C,F,] | [G,,E,] [G,,D,]2- [G,,D,]2 [G,,G,] | %3
 [G,,G,]>[G,,G,][G,,G,] [G,,G,][A,,G,][B,,G,] |[M:5/8] [C,G,]-[C,G,]- [C,G,]3 |[M:1/8] [C,C] | %6
[M:3/4] [F,CF]>[F,CF] [F,CF][F,CF] [F,B,][F,A,] | [C,G,][C,C]- [C,C]3 [C,C] | %8
 [D,A,]>[D,C] [D,C][D,C] [D,B,][D,A,] |[M:5/8][K:treble] [G,F]-[G,F]- [G,F]3 |[M:1/8] [G,B,F] | %11
[M:3/4][K:bass] [C,C]>[C,C] [C,C][C,G,] [C,G,][C,F,] | [G,,E,][G,,D,]- [G,,D,]3 [G,,G,] | %13
 [G,,G,]>[G,,G,] [G,,G,][K:treble][G,B,F] [G,DF][G,B,F] |[M:5/8][K:bass] [C,C]-[C,C]- [C,C]3 | %15
[M:1/8] [C,C] |[M:3/4] [C,G,]>[C,G,] [C,G,][C,C] [D,B,]E, | F,F,- F,3 F, | %18
[M:13/16] E,A,F,G,G,,3/2G,, |[M:5/8] C,-C,- C,3 |[M:1/8] G, | %21
[M:3/4][K:treble] [G,B,F]>[G,B,F] [G,B,F][G,B,F] [G,CF][G,DF] | z2 A, G,2 [CE] | %23
 [A,CE]>[A,CE] [A,CE][D,C] [D,C][D,D] |[M:5/8][K:treble] [G,B,G]2 [A,C] [B,D]2 |[M:1/8] [G,B,] | %26
[M:3/4] [CG][CG] [_B,DG] [A,EG]2 [A,^CG] | [D,A,][D,A,] [E,^C] [F,D]2 [^F,D] | %28
[M:13/16] [G,CG][E,C][_E,C][D,G,][G,B,]3/2[F,B,] |[M:5/8] [C,C]-[C,C]- [C,C]3 |] %30
V:3
 x6 | x6 | x6 | x6 |[M:5/8] x5 |[M:1/8] x |[M:3/4] x6 | x6 | x6 |[M:5/8] x5 |[M:1/8] x | %11
[M:3/4] x6 | x6 | x6 |[M:5/8] x5 |[M:1/8] x |[M:3/4] x6 | x6 |[M:13/16] x4[K:bass] x5/2 | %19
[M:5/8] x5 |[M:1/8][K:treble] x |[M:3/4] x6 | [CE]2 z2 z2 | x6 |[M:5/8] z2 ^F =F2 |[M:1/8] x | %26
[M:3/4] x6 | x6 |[M:13/16] x13/2 |[M:5/8] x5 |] %30
V:4
 x6 | x6 | x6 | x6 |[M:5/8] x5 |[M:1/8] x |[M:3/4] x6 | x6 | x6 |[M:5/8][K:treble] x5 |[M:1/8] x | %11
[M:3/4][K:bass] x6 | x6 | x3[K:treble] x3 |[M:5/8][K:bass] x5 |[M:1/8] x |[M:3/4] x6 | x6 | %18
[M:13/16] x13/2 |[M:5/8] x5 |[M:1/8] x |[M:3/4][K:treble] x6 | C,6 | x6 |[M:5/8][K:treble] x5 | %25
[M:1/8] x |[M:3/4] x6 | x6 |[M:13/16] x13/2 |[M:5/8] x5 |] %30

